X: 40936
T: Trip To Bofin, The
R: jig
M: 6/8
K: Gmajor
|:G3 ABG|dec A2 g|fed cFA|dec BcA|
G3 ABG|dec A2 g|fed cDF|1 AGF G2 D:|2 AGF G3||
|:g3 gag|fed cAG|fec gfd|fec edB|
[1 g3 gag|fed cAd|DFA dcA|AGF G3:|
[2 agg gff|fee edc|DFA dcA|AGF G3||

